apps/ui-icons/svgs/pined.svg

<svg xmlns="http://www.w3.org/2000/svg" width="24" height="24" fill="none" viewBox="0 0 24 24">
  <path fill="#171D26" d="m16 12 2 2v2h-5v6l-1 1-1-1v-6H6v-2l2-2V5H7V3h10v2h-1v7Z"/>
</svg>

<svg viewBox="0 0 24 24" width="24" height="24"  fill="none" xmlns="http://www.w3.org/2000/svg">
<path d="M16 12L18 14V16H13V22L12 23L11 22V16H6V14L8 12V5H7V3H17V5H16V12Z" fill="#171D26"/>
</svg>
